X: 1
T: Kijé
M: 4/4
L: 1/4
C: Russian Tune
Z: NP 15/11/2016
Z: Contributed 2016-12-07 04:32:42 by Joe Offer joe@mudcat.org
K: D
A | (d/c/) (B/c/) d B | ABFA | (B/A/) G d (c/d/) | A3 (G/F/) | EBAG | (A/G/) (F/G/) A (d/B/) | G F/G/ AA | d3||
w: O Ki-*jé *was a Huss-ar bold, a Huss-*ar bold was *he; He *fought so brave-ly for *the *Tsar, the *pride of the Ca-val-ry.
